assets/icons/pc_specs/case.svg

<svg width="32" height="32" viewBox="0 0 32 32" fill="none" xmlns="http://www.w3.org/2000/svg">
<path d="M22.4417 0H9.5C8.12158 0 7 1.12158 7 2.5V27.5081C7 28.8867 8.12158 30.0081 9.5 30.0081H10.3652V31.0625C10.3652 31.5803 10.7849 32 11.3027 32C11.8206 32 12.2402 31.5803 12.2402 31.0625V30.0081H19.7014V31.0625C19.7014 31.5803 20.1211 32 20.6389 32C21.1567 32 21.5764 31.5803 21.5764 31.0625V30.0081H22.4417C23.8201 30.0081 24.9417 28.8867 24.9417 27.5081V2.5C24.9417 1.12158 23.8201 0 22.4417 0ZM23.0667 27.5081C23.0667 27.8528 22.7861 28.1331 22.4417 28.1331H9.5C9.15527 28.1331 8.875 27.8528 8.875 27.5081V2.5C8.875 2.15527 9.15527 1.875 9.5 1.875H22.4417C22.7861 1.875 23.0667 2.15527 23.0667 2.5V27.5081Z" fill="#2B398F"/>
<path d="M22.4417 0H9.5C8.12158 0 7 1.12158 7 2.5V27.5081C7 28.8867 8.12158 30.0081 9.5 30.0081H10.3652V31.0625C10.3652 31.5803 10.7849 32 11.3027 32C11.8206 32 12.2402 31.5803 12.2402 31.0625V30.0081H19.7014V31.0625C19.7014 31.5803 20.1211 32 20.6389 32C21.1567 32 21.5764 31.5803 21.5764 31.0625V30.0081H22.4417C23.8201 30.0081 24.9417 28.8867 24.9417 27.5081V2.5C24.9417 1.12158 23.8201 0 22.4417 0ZM23.0667 27.5081C23.0667 27.8528 22.7861 28.1331 22.4417 28.1331H9.5C9.15527 28.1331 8.875 27.8528 8.875 27.5081V2.5C8.875 2.15527 9.15527 1.875 9.5 1.875H22.4417C22.7861 1.875 23.0667 2.15527 23.0667 2.5V27.5081Z" fill="#3749BB"/>
<path d="M12.3608 7.24609H19.5186C20.0364 7.24609 20.4561 6.82642 20.4561 6.30859C20.4561 5.79077 20.0364 5.37109 19.5186 5.37109H12.3608C11.843 5.37109 11.4233 5.79077 11.4233 6.30859C11.4233 6.82642 11.843 7.24609 12.3608 7.24609Z" fill="#2B398F"/>
<path d="M12.3608 7.24609H19.5186C20.0364 7.24609 20.4561 6.82642 20.4561 6.30859C20.4561 5.79077 20.0364 5.37109 19.5186 5.37109H12.3608C11.843 5.37109 11.4233 5.79077 11.4233 6.30859C11.4233 6.82642 11.843 7.24609 12.3608 7.24609Z" fill="#3749BB"/>
<path d="M20.4561 10.1055C20.4561 9.58765 20.0364 9.16797 19.5186 9.16797H12.3608C11.843 9.16797 11.4233 9.58765 11.4233 10.1055C11.4233 10.6233 11.843 11.043 12.3608 11.043H19.5186C20.0364 11.043 20.4561 10.6233 20.4561 10.1055Z" fill="#2B398F"/>
<path d="M20.4561 10.1055C20.4561 9.58765 20.0364 9.16797 19.5186 9.16797H12.3608C11.843 9.16797 11.4233 9.58765 11.4233 10.1055C11.4233 10.6233 11.843 11.043 12.3608 11.043H19.5186C20.0364 11.043 20.4561 10.6233 20.4561 10.1055Z" fill="#3749BB"/>
<path d="M15.9707 24.1538C15.7249 24.1538 15.4841 24.2532 15.3105 24.4268C15.1367 24.6011 15.0371 24.8416 15.0371 25.0874C15.0371 25.333 15.1367 25.5735 15.3105 25.7478C15.4846 25.9214 15.7251 26.021 15.9707 26.021C16.2166 26.021 16.4568 25.9214 16.6311 25.7478C16.8049 25.5735 16.9045 25.333 16.9045 25.0874C16.9045 24.8416 16.8049 24.6011 16.6311 24.4268C16.4568 24.2532 16.2168 24.1538 15.9707 24.1538Z" fill="#2B398F"/>
<path d="M15.9707 24.1538C15.7249 24.1538 15.4841 24.2532 15.3105 24.4268C15.1367 24.6011 15.0371 24.8416 15.0371 25.0874C15.0371 25.333 15.1367 25.5735 15.3105 25.7478C15.4846 25.9214 15.7251 26.021 15.9707 26.021C16.2166 26.021 16.4568 25.9214 16.6311 25.7478C16.8049 25.5735 16.9045 25.333 16.9045 25.0874C16.9045 24.8416 16.8049 24.6011 16.6311 24.4268C16.4568 24.2532 16.2168 24.1538 15.9707 24.1538Z" fill="#3749BB"/>
</svg>

<svg xmlns="http://www.w3.org/2000/svg" fill="none" viewBox="0 0 32 32"><path fill="#2B398F" d="M22.4417 0H9.5C8.1216 0 7 1.1216 7 2.5v25.0081c0 1.3786 1.1216 2.5 2.5 2.5h.8652v1.0544c0 .5178.4197.9375.9375.9375a.9374.9374 0 0 0 .9375-.9375v-1.0544h7.4612v1.0544c0 .5178.4197.9375.9375.9375a.9375.9375 0 0 0 .9375-.9375v-1.0544h.8653c1.3784 0 2.5-1.1214 2.5-2.5V2.5c0-1.3784-1.1216-2.5-2.5-2.5Zm.625 27.5081a.6258.6258 0 0 1-.625.625H9.5a.6256.6256 0 0 1-.625-.625V2.5c0-.3447.2803-.625.625-.625h12.9417c.3444 0 .625.2803.625.625v25.0081Z"/><path fill="#3749BB" d="M22.4417 0H9.5C8.1216 0 7 1.1216 7 2.5v25.0081c0 1.3786 1.1216 2.5 2.5 2.5h.8652v1.0544c0 .5178.4197.9375.9375.9375a.9374.9374 0 0 0 .9375-.9375v-1.0544h7.4612v1.0544c0 .5178.4197.9375.9375.9375a.9375.9375 0 0 0 .9375-.9375v-1.0544h.8653c1.3784 0 2.5-1.1214 2.5-2.5V2.5c0-1.3784-1.1216-2.5-2.5-2.5Zm.625 27.5081a.6258.6258 0 0 1-.625.625H9.5a.6256.6256 0 0 1-.625-.625V2.5c0-.3447.2803-.625.625-.625h12.9417c.3444 0 .625.2803.625.625v25.0081Z"/><path fill="#2B398F" d="M12.3608 7.246h7.1578a.9374.9374 0 0 0 .9375-.9374.9374.9374 0 0 0-.9375-.9375h-7.1578a.9374.9374 0 0 0-.9375.9375c0 .5178.4197.9375.9375.9375Z"/><path fill="#3749BB" d="M12.3608 7.246h7.1578a.9374.9374 0 0 0 .9375-.9374.9374.9374 0 0 0-.9375-.9375h-7.1578a.9374.9374 0 0 0-.9375.9375c0 .5178.4197.9375.9375.9375Z"/><path fill="#2B398F" d="M20.4561 10.1055a.9375.9375 0 0 0-.9375-.9375h-7.1578a.9375.9375 0 0 0-.9375.9375c0 .5178.4197.9375.9375.9375h7.1578a.9375.9375 0 0 0 .9375-.9375Z"/><path fill="#3749BB" d="M20.4561 10.1055a.9375.9375 0 0 0-.9375-.9375h-7.1578a.9375.9375 0 0 0-.9375.9375c0 .5178.4197.9375.9375.9375h7.1578a.9375.9375 0 0 0 .9375-.9375Z"/><path fill="#2B398F" d="M15.9707 24.1538a.9401.9401 0 0 0-.6602.273.9418.9418 0 0 0-.2734.6606c0 .2456.0996.4861.2734.6604a.9416.9416 0 0 0 .6602.2732.9419.9419 0 0 0 .6604-.2732.9417.9417 0 0 0 .2734-.6604.9418.9418 0 0 0-.2734-.6606.9413.9413 0 0 0-.6604-.273Z"/><path fill="#3749BB" d="M15.9707 24.1538a.9401.9401 0 0 0-.6602.273.9418.9418 0 0 0-.2734.6606c0 .2456.0996.4861.2734.6604a.9416.9416 0 0 0 .6602.2732.9419.9419 0 0 0 .6604-.2732.9417.9417 0 0 0 .2734-.6604.9418.9418 0 0 0-.2734-.6606.9413.9413 0 0 0-.6604-.273Z"/></svg>
